Newaita-dark/apps/48/compiz.svg

<svg height="48" viewBox="0 0 48 48" width="48" xmlns="http://www.w3.org/2000/svg" xmlns:xlink="http://www.w3.org/1999/xlink"><linearGradient id="a" gradientUnits="userSpaceOnUse" x1="23.81478" x2="23.81478" y1="42.0509045" y2="44.03547050005"><stop offset="0" stop-opacity=".27451"/><stop offset="1" stop-opacity="0"/></linearGradient><linearGradient id="b"><stop offset="0" stop-opacity=".313726"/><stop offset=".222222" stop-opacity=".27451"/><stop offset="1" stop-opacity="0"/></linearGradient><radialGradient id="c" cx="450.908936" cy="189.579361" gradientTransform="matrix(.00000026 -.117199 -.210958 -.00000015 78.195972 95.392999)" gradientUnits="userSpaceOnUse" r="21.166656" xlink:href="#b"/><radialGradient id="d" cx="450.908936" cy="189.579361" gradientTransform="matrix(-.00000026 .117199 .210958 .00000015 -30.56642 -11.291218)" gradientUnits="userSpaceOnUse" r="21.166656" xlink:href="#b"/><radialGradient id="e" cx="450.908936" cy="189.579361" gradientTransform="matrix(-.00000026 -.117199 .210958 -.00000015 -30.56642 95.392999)" gradientUnits="userSpaceOnUse" r="21.166656" xlink:href="#b"/><radialGradient id="f" cx="450.908936" cy="189.579361" gradientTransform="matrix(.00000026 .117199 -.210958 .00000015 78.195969 -11.291219)" gradientUnits="userSpaceOnUse" r="21.166656" xlink:href="#b"/><linearGradient id="g" gradientUnits="userSpaceOnUse" x1="15.87652349995" x2="15.87652349995" y1="42.0509015" y2="4.3441580001"><stop offset="0" stop-color="#424242"/><stop offset="1" stop-color="#616161"/></linearGradient><linearGradient id="h" gradientUnits="userSpaceOnUse" x1="27.783952" x2="27.783952" y1="42.05096580616" y2="4.34417266504"><stop offset="0" stop-color="#42a5f5"/><stop offset="1" stop-color="#64b5f6"/></linearGradient><path d="m8.929688 41.902344h29.769531v2.207031h-29.769531zm0 0" fill="url(#a)"/><path d="m38.699219 42.050781h3.96875v-1.984375h-3.96875zm0 0" fill="url(#c)"/><path d="m8.929688 42.050781h-3.96875v1.984375h3.96875zm0 0" fill="url(#d)"/><path d="m8.929688 42.050781h-3.96875v-1.984375h3.96875zm0 0" fill="url(#e)"/><path d="m38.699219 42.050781h3.96875v1.984375h-3.96875zm0 0" fill="url(#f)"/><path d="m6.945312 4.34375h33.738282c1.097656 0 1.984375.890625 1.984375 1.984375v33.738281c0 1.097656-.886719 1.984375-1.984375 1.984375h-33.738282c-1.09375 0-1.984374-.886719-1.984374-1.984375v-33.738281c0-1.09375.890624-1.984375 1.984374-1.984375zm0 0" fill="url(#g)"/><path d="m6.945312 4.34375c-1.097656 0-1.984374.886719-1.984374 1.984375v.25c0-1.101563.886718-1.988281 1.984374-1.984375h33.738282c1.097656-.003906 1.984375.882812 1.984375 1.984375v-.25c0-1.097656-.886719-1.984375-1.984375-1.984375zm0 0" fill="#e6e6e6" fill-opacity=".392157"/><path d="m6.945312 42.050781c-1.097656 0-1.984374-.886719-1.984374-1.984375v-.25c0 1.101563.886718 1.988282 1.984374 1.988282h33.738282c1.097656 0 1.984375-.886719 1.984375-1.988282v.25c0 1.097656-.886719 1.984375-1.984375 1.984375zm0 0" fill-opacity=".196078"/><path d="m74.076259-168.671091h359.840637c11.707216 0 21.164646 9.499093 21.164646 21.164646v359.840637c0 11.707215-9.45743 21.164645-21.164646 21.164645h-359.840637c-11.665552 0-21.164645-9.45743-21.164645-21.164645v-359.840637c0-11.665553 9.499093-21.164646 21.164645-21.164646zm0 0" fill="none" stroke="#212121" stroke-linecap="round" stroke-width="3" transform="matrix(.093759 0 0 .093759 0 20.158175)"/><path d="m13.398438 12.097656.203124 18.214844 4.03125-6.910156 7.691407 18.648437h11.636719l-15.890626-20.632812 8-.039063zm0 0" fill="url(#h)"/><path d="m13.398438 12.097656.007812.683594 14.523438 8.605469 1.140624-.007813zm8.195312 10h-.523438l15.363282 19.953125h.527344zm0 0" fill="#fff" fill-opacity=".392157"/><path d="m540.105931 487.669991 8.188195 734.260629 162.504175-278.556091 310.049148 751.739275h469.089088l-640.568784-831.731641 322.488906-1.574652zm0 0" fill="none" stroke="#212121" stroke-width="11.338583" transform="scale(.0248071)"/><path d="m13.398438 12.671875.203124 18.214844 4.03125-6.910157 7.453126 18.074219h.203124l-7.65625-18.570312-4.03125 6.910156-.195312-17.714844zm14.839843 8.792969-7.167969.03125.382813.496094 7.617187-.035157zm0 0" fill-opacity=".235294"/></svg>

<?xml version="1.0" encoding="UTF-8"?>
<svg xmlns="http://www.w3.org/2000/svg" xmlns:xlink="http://www.w3.org/1999/xlink" width="48px" height="48px" viewBox="0 0 48 48" version="1.1">
<defs>
<linearGradient id="linear0" gradientUnits="userSpaceOnUse" x1="254" y1="233.5" x2="254" y2="254.666672" gradientTransform="matrix(0.093759,0,0,0.093759,-0.00000572259,20.158178)">
<stop offset="0" style="stop-color:rgb(0%,0%,0%);stop-opacity:0.27451;"/>
<stop offset="1" style="stop-color:rgb(0%,0%,0%);stop-opacity:0;"/>
</linearGradient>
<radialGradient id="radial0" gradientUnits="userSpaceOnUse" cx="450.908936" cy="189.579361" fx="450.908936" fy="189.579361" r="21.166656" gradientTransform="matrix(0.000000261256,-0.117199,-0.210958,-0.000000152308,78.195972,95.392999)">
<stop offset="0" style="stop-color:rgb(0%,0%,0%);stop-opacity:0.313726;"/>
<stop offset="0.222222" style="stop-color:rgb(0%,0%,0%);stop-opacity:0.27451;"/>
<stop offset="1" style="stop-color:rgb(0%,0%,0%);stop-opacity:0;"/>
</radialGradient>
<radialGradient id="radial1" gradientUnits="userSpaceOnUse" cx="450.908936" cy="189.579361" fx="450.908936" fy="189.579361" r="21.166656" gradientTransform="matrix(-0.000000261256,0.117199,0.210958,0.000000152308,-30.56642,-11.291218)">
<stop offset="0" style="stop-color:rgb(0%,0%,0%);stop-opacity:0.313726;"/>
<stop offset="0.222222" style="stop-color:rgb(0%,0%,0%);stop-opacity:0.27451;"/>
<stop offset="1" style="stop-color:rgb(0%,0%,0%);stop-opacity:0;"/>
</radialGradient>
<radialGradient id="radial2" gradientUnits="userSpaceOnUse" cx="450.908936" cy="189.579361" fx="450.908936" fy="189.579361" r="21.166656" gradientTransform="matrix(-0.000000261256,-0.117199,0.210958,-0.000000152308,-30.56642,95.392999)">
<stop offset="0" style="stop-color:rgb(0%,0%,0%);stop-opacity:0.313726;"/>
<stop offset="0.222222" style="stop-color:rgb(0%,0%,0%);stop-opacity:0.27451;"/>
<stop offset="1" style="stop-color:rgb(0%,0%,0%);stop-opacity:0;"/>
</radialGradient>
<radialGradient id="radial3" gradientUnits="userSpaceOnUse" cx="450.908936" cy="189.579361" fx="450.908936" fy="189.579361" r="21.166656" gradientTransform="matrix(0.000000261256,0.117199,-0.210958,0.000000152308,78.195969,-11.291219)">
<stop offset="0" style="stop-color:rgb(0%,0%,0%);stop-opacity:0.313726;"/>
<stop offset="0.222222" style="stop-color:rgb(0%,0%,0%);stop-opacity:0.27451;"/>
<stop offset="1" style="stop-color:rgb(0%,0%,0%);stop-opacity:0;"/>
</radialGradient>
<linearGradient id="linear1" gradientUnits="userSpaceOnUse" x1="169.333328" y1="233.5" x2="169.333328" y2="-168.666656" gradientTransform="matrix(0.093759,0,0,0.093759,0,20.158175)">
<stop offset="0" style="stop-color:rgb(25.882354%,25.882354%,25.882354%);stop-opacity:1;"/>
<stop offset="1" style="stop-color:rgb(38.039216%,38.039216%,38.039216%);stop-opacity:1;"/>
</linearGradient>
<linearGradient id="linear2" gradientUnits="userSpaceOnUse" x1="1120" y1="1695.118164" x2="1120" y2="175.118118" gradientTransform="matrix(0.0248071,0,0,0.0248071,0,0.00000000000000282)">
<stop offset="0" style="stop-color:rgb(25.882354%,64.705884%,96.078432%);stop-opacity:1;"/>
<stop offset="1" style="stop-color:rgb(39.215687%,70.980394%,96.470588%);stop-opacity:1;"/>
</linearGradient>
</defs>
<g id="surface1">
<path style=" stroke:none;fill-rule:nonzero;fill:url(#linear0);" d="M 8.929688 41.902344 L 38.699219 41.902344 L 38.699219 44.109375 L 8.929688 44.109375 Z M 8.929688 41.902344 "/>
<path style=" stroke:none;fill-rule:nonzero;fill:url(#radial0);" d="M 38.699219 42.050781 L 42.667969 42.050781 L 42.667969 40.066406 L 38.699219 40.066406 Z M 38.699219 42.050781 "/>
<path style=" stroke:none;fill-rule:nonzero;fill:url(#radial1);" d="M 8.929688 42.050781 L 4.960938 42.050781 L 4.960938 44.035156 L 8.929688 44.035156 Z M 8.929688 42.050781 "/>
<path style=" stroke:none;fill-rule:nonzero;fill:url(#radial2);" d="M 8.929688 42.050781 L 4.960938 42.050781 L 4.960938 40.066406 L 8.929688 40.066406 Z M 8.929688 42.050781 "/>
<path style=" stroke:none;fill-rule:nonzero;fill:url(#radial3);" d="M 38.699219 42.050781 L 42.667969 42.050781 L 42.667969 44.035156 L 38.699219 44.035156 Z M 38.699219 42.050781 "/>
<path style=" stroke:none;fill-rule:nonzero;fill:url(#linear1);" d="M 6.945312 4.34375 L 40.683594 4.34375 C 41.78125 4.34375 42.667969 5.234375 42.667969 6.328125 L 42.667969 40.066406 C 42.667969 41.164062 41.78125 42.050781 40.683594 42.050781 L 6.945312 42.050781 C 5.851562 42.050781 4.960938 41.164062 4.960938 40.066406 L 4.960938 6.328125 C 4.960938 5.234375 5.851562 4.34375 6.945312 4.34375 Z M 6.945312 4.34375 "/>
<path style=" stroke:none;fill-rule:nonzero;fill:rgb(90.196079%,90.196079%,90.196079%);fill-opacity:0.392157;" d="M 6.945312 4.34375 C 5.847656 4.34375 4.960938 5.230469 4.960938 6.328125 L 4.960938 6.578125 C 4.960938 5.476562 5.847656 4.589844 6.945312 4.59375 L 40.683594 4.59375 C 41.78125 4.589844 42.667969 5.476562 42.667969 6.578125 L 42.667969 6.328125 C 42.667969 5.230469 41.78125 4.34375 40.683594 4.34375 Z M 6.945312 4.34375 "/>
<path style=" stroke:none;fill-rule:nonzero;fill:rgb(0%,0%,0%);fill-opacity:0.196078;" d="M 6.945312 42.050781 C 5.847656 42.050781 4.960938 41.164062 4.960938 40.066406 L 4.960938 39.816406 C 4.960938 40.917969 5.847656 41.804688 6.945312 41.804688 L 40.683594 41.804688 C 41.78125 41.804688 42.667969 40.917969 42.667969 39.816406 L 42.667969 40.066406 C 42.667969 41.164062 41.78125 42.050781 40.683594 42.050781 Z M 6.945312 42.050781 "/>
<path style="fill:none;stroke-width:3;stroke-linecap:round;stroke-linejoin:miter;stroke:rgb(12.941177%,12.941177%,12.941177%);stroke-opacity:1;stroke-miterlimit:4;" d="M 74.076259 -168.671091 L 433.916896 -168.671091 C 445.624112 -168.671091 455.081542 -159.171998 455.081542 -147.506445 L 455.081542 212.334192 C 455.081542 224.041407 445.624112 233.498837 433.916896 233.498837 L 74.076259 233.498837 C 62.410707 233.498837 52.911614 224.041407 52.911614 212.334192 L 52.911614 -147.506445 C 52.911614 -159.171998 62.410707 -168.671091 74.076259 -168.671091 Z M 74.076259 -168.671091 " transform="matrix(0.093759,0,0,0.093759,0,20.158175)"/>
<path style=" stroke:none;fill-rule:nonzero;fill:url(#linear2);" d="M 13.398438 12.097656 L 13.601562 30.3125 L 17.632812 23.402344 L 25.324219 42.050781 L 36.960938 42.050781 L 21.070312 21.417969 L 29.070312 21.378906 Z M 13.398438 12.097656 "/>
<path style=" stroke:none;fill-rule:nonzero;fill:rgb(100%,100%,100%);fill-opacity:0.392157;" d="M 13.398438 12.097656 L 13.40625 12.78125 L 27.929688 21.386719 L 29.070312 21.378906 Z M 21.59375 22.097656 L 21.070312 22.097656 L 36.433594 42.050781 L 36.960938 42.050781 Z M 21.59375 22.097656 "/>
<path style="fill:none;stroke-width:11.338583;stroke-linecap:butt;stroke-linejoin:miter;stroke:rgb(12.941177%,12.941177%,12.941177%);stroke-opacity:1;stroke-miterlimit:4;" d="M 540.105931 487.669991 L 548.294126 1221.93062 L 710.798301 943.374529 L 1020.847449 1695.113804 L 1489.936537 1695.113804 L 849.367753 863.382163 L 1171.856659 861.807511 Z M 540.105931 487.669991 " transform="matrix(0.0248071,0,0,0.0248071,0,0)"/>
<path style=" stroke:none;fill-rule:nonzero;fill:rgb(0%,0%,0%);fill-opacity:0.235294;" d="M 13.398438 12.671875 L 13.601562 30.886719 L 17.632812 23.976562 L 25.085938 42.050781 L 25.289062 42.050781 L 17.632812 23.480469 L 13.601562 30.390625 L 13.40625 12.675781 Z M 28.238281 21.464844 L 21.070312 21.496094 L 21.453125 21.992188 L 29.070312 21.957031 Z M 28.238281 21.464844 "/>
</g>
</svg>
